assets/Syringe/Flat/syringe_flat.svg

<svg width="32" height="32" viewBox="0 0 32 32" fill="none" xmlns="http://www.w3.org/2000/svg">
<path d="M21.5715 9.48787L28.1504 3.5643C28.3876 3.36098 28.7105 3.68388 28.5072 3.92109L22.5837 10.5L21.5715 9.48787Z" fill="#9B9B9B"/>
<path d="M8.28525 26.6396L5.38351 23.7379L3.25928 25.8621L6.16102 28.7638L8.28525 26.6396Z" fill="#9B9B9B"/>
<path d="M18.8605 7.70696C18.47 7.31643 17.8368 7.31643 17.4463 7.70696L16.1014 9.05191L15.9682 9.9551L15.0612 10.0921L14.0829 11.0704L13.9362 11.9871L13.0156 12.1377L12.103 13.0502L11.968 13.9554L11.059 14.0943L5.70696 19.4463C5.31643 19.8368 5.31643 20.47 5.70696 20.8605L11.1392 26.2927C11.5297 26.6833 12.1629 26.6833 12.5534 26.2927L24.2927 14.5534C24.6833 14.1629 24.6833 13.5297 24.2927 13.1392L23.0747 11.9212L23.9604 11.0355C24.3509 10.645 24.3509 10.0118 23.9604 9.62129L22.5462 8.20708C22.1557 7.81655 21.5225 7.81655 21.132 8.20708L20.2463 9.09274L18.8605 7.70696Z" fill="#AEDDFF"/>
<path d="M16.107 9.04639L15.0464 10.107L16.2373 11.298C16.5302 11.5909 17.0051 11.5909 17.298 11.298C17.5909 11.0051 17.5909 10.5302 17.298 10.2373L16.107 9.04639Z" fill="#0074BA"/>
<path d="M14.0767 11.0767L15.2373 12.2373C15.5302 12.5302 15.5302 13.0051 15.2373 13.298C14.9444 13.5909 14.4696 13.5909 14.1767 13.298L13.0161 12.1374L14.0767 11.0767Z" fill="#0074BA"/>
<path d="M12.107 13.0464L13.298 14.2373C13.5909 14.5302 13.5909 15.0051 13.298 15.298C13.0051 15.5909 12.5302 15.5909 12.2373 15.298L11.0464 14.107L12.107 13.0464Z" fill="#0074BA"/>
<path d="M5.39339 19.5356C5.00286 19.145 4.3697 19.145 3.97917 19.5356L3.27207 20.2427C2.88154 20.6332 2.88154 21.2664 3.27207 21.6569L10.3431 28.728C10.7337 29.1185 11.3668 29.1185 11.7573 28.728L12.4645 28.0209C12.855 27.6303 12.855 26.9972 12.4645 26.6066L5.39339 19.5356Z" fill="#5092FF"/>
<path d="M3.50933 25.2585C3.21644 24.9656 2.74157 24.9656 2.44867 25.2585C2.15578 25.5513 2.15578 26.0262 2.44867 26.3191L5.63065 29.5011C5.92355 29.794 6.39842 29.794 6.69131 29.5011C6.98421 29.2082 6.98421 28.7333 6.69131 28.4404L3.50933 25.2585Z" fill="#5092FF"/>
</svg>

<svg xmlns="http://www.w3.org/2000/svg" width="32" height="32" fill="none"><path fill="#9B9B9B" d="m21.572 9.488 6.578-5.924c.238-.203.56.12.357.357L22.584 10.5l-1.012-1.012ZM8.285 26.64l-2.901-2.902-2.125 2.124 2.902 2.902 2.124-2.124Z"/><path fill="#AEDDFF" d="M18.86 7.707a1 1 0 0 0-1.414 0l-1.345 1.345-.133.903-.907.137-.978.978-.147.917-.92.15-.913.913-.135.905-.909.14-5.352 5.351a1 1 0 0 0 0 1.414l5.432 5.433a1 1 0 0 0 1.414 0l11.74-11.74a1 1 0 0 0 0-1.414l-1.218-1.218.885-.885a1 1 0 0 0 0-1.415l-1.414-1.414a1 1 0 0 0-1.414 0l-.886.886-1.386-1.386Z"/><path fill="#0074BA" d="m16.107 9.046-1.06 1.061 1.19 1.191a.75.75 0 0 0 1.061-1.06l-1.191-1.192ZM14.077 11.077l1.16 1.16a.75.75 0 0 1-1.06 1.061l-1.16-1.16 1.06-1.061ZM12.107 13.046l1.191 1.191a.75.75 0 0 1-1.06 1.061l-1.192-1.191 1.061-1.06Z"/><path fill="#5092FF" d="M5.393 19.536a1 1 0 0 0-1.414 0l-.707.707a1 1 0 0 0 0 1.414l7.071 7.071a1 1 0 0 0 1.414 0l.707-.707a1 1 0 0 0 0-1.414l-7.07-7.071ZM3.51 25.259a.75.75 0 0 0-1.061 1.06l3.182 3.182a.75.75 0 1 0 1.06-1.06L3.51 25.258Z"/></svg>
